app/public/dtpr-icons/toggle.svg

<svg width="36" height="36" viewBox="0 0 36 36" fill="none" xmlns="http://www.w3.org/2000/svg">
<path d="M31.8564 8.8453L19 1.42265C18.3812 1.06538 17.6188 1.06538 17 1.42265L4.14359 8.8453C3.52479 9.20257 3.14359 9.86282 3.14359 10.5774V25.4226C3.14359 26.1372 3.52479 26.7974 4.14359 27.1547L17 34.5774C17.6188 34.9346 18.3812 34.9346 19 34.5774L31.8564 27.1547C32.4752 26.7974 32.8564 26.1372 32.8564 25.4226V10.5774C32.8564 9.86282 32.4752 9.20256 31.8564 8.8453Z" fill="black" stroke="black" stroke-width="2"/>
<mask id="mask0" mask-type="alpha" maskUnits="userSpaceOnUse" x="9" y="13" width="18" height="9">
<path fill-rule="evenodd" clip-rule="evenodd" d="M9.0001 13.0002H27V22H9.0001V13.0002Z" fill="white"/>
</mask>
<g mask="url(#mask0)">
<path fill-rule="evenodd" clip-rule="evenodd" d="M22.5 14.8C23.994 14.8 25.2 16.006 25.2 17.5C25.2 18.994 23.994 20.2 22.5 20.2C21.006 20.2 19.8 18.994 19.8 17.5C19.8 16.006 21.006 14.8 22.5 14.8ZM13.5 22H22.5C24.984 22 27 19.984 27 17.5C27 15.016 24.984 13 22.5 13H13.5C11.016 13 9 15.016 9 17.5C9 19.984 11.016 22 13.5 22Z" fill="white"/>
</g>
</svg>

<svg xmlns="http://www.w3.org/2000/svg" width="36" height="36" fill="none"><path fill="#000" stroke="#000" stroke-width="2" d="M31.856 8.845 19 1.423a2 2 0 0 0-2 0L4.144 8.845a2 2 0 0 0-1 1.732v14.846a2 2 0 0 0 1 1.732L17 34.577a2 2 0 0 0 2 0l12.856-7.422a2 2 0 0 0 1-1.732V10.577a2 2 0 0 0-1-1.732Z"/><mask id="a" width="18" height="9" x="9" y="13" mask-type="alpha" maskUnits="userSpaceOnUse"><path fill="#fff" fill-rule="evenodd" d="M9 13h18v9H9z" clip-rule="evenodd"/></mask><g mask="url(#a)"><path fill="#fff" fill-rule="evenodd" d="M22.5 14.8c1.494 0 2.7 1.206 2.7 2.7s-1.206 2.7-2.7 2.7a2.696 2.696 0 0 1-2.7-2.7c0-1.494 1.206-2.7 2.7-2.7m-9 7.2h9c2.484 0 4.5-2.016 4.5-4.5S24.984 13 22.5 13h-9A4.5 4.5 0 0 0 9 17.5c0 2.484 2.016 4.5 4.5 4.5" clip-rule="evenodd"/></g></svg>
